src/icons/svg/HeartNew.svg

<svg width="23" height="24" viewBox="0 0 23 24" fill="none" xmlns="http://www.w3.org/2000/svg">
<path d="M15.84 3.36C14.17 3.36 12.566 4.138 11.52 5.366C10.474 4.137 8.86998 3.36 7.19998 3.36C4.24298 3.36 1.91998 5.683 1.91998 8.64C1.91998 12.269 5.18398 15.226 10.128 19.718L11.52 20.976L12.912 19.709C17.856 15.226 21.12 12.269 21.12 8.64C21.12 5.683 18.797 3.36 15.84 3.36V3.36ZM11.616 18.288L11.52 18.384L11.424 18.288C6.85398 14.15 3.83998 11.414 3.83998 8.64C3.83998 6.72 5.27998 5.28 7.19998 5.28C8.67798 5.28 10.118 6.23 10.627 7.546H12.422C12.921 6.231 14.361 5.28 15.84 5.28C17.76 5.28 19.2 6.72 19.2 8.64C19.2 11.414 16.186 14.15 11.616 18.288Z" fill="#1C2125"/>
</svg>

<!-- Generated by IcoMoon.io -->
<svg version="1.1" xmlns="http://www.w3.org/2000/svg" width="23" height="24" viewBox="0 0 23 24">
<title>heart-new</title>
<path fill="#c1c6cc" d="M15.84 3.36c-1.67 0-3.274 0.778-4.32 2.006-1.046-1.229-2.65-2.006-4.32-2.006-2.957 0-5.28 2.323-5.28 5.28 0 3.629 3.264 6.586 8.208 11.078l1.392 1.258 1.392-1.267c4.944-4.483 8.208-7.44 8.208-11.069 0-2.957-2.323-5.28-5.28-5.28zM11.616 18.288l-0.096 0.096-0.096-0.096c-4.57-4.138-7.584-6.874-7.584-9.648 0-1.92 1.44-3.36 3.36-3.36 1.478 0 2.918 0.95 3.427 2.266h1.795c0.499-1.315 1.939-2.266 3.418-2.266 1.92 0 3.36 1.44 3.36 3.36 0 2.774-3.014 5.51-7.584 9.648z"></path>
</svg>
